svgs/light/scroll-old.svg

<svg xmlns="http://www.w3.org/2000/svg" viewBox="0 0 576 512"><!-- Font Awesome Pro 6.0.0-alpha2 by @fontawesome - https://fontawesome.com License - https://fontawesome.com/license (Commercial License) --><path d="M544 320H480V144C480 82.25 429.75 32 368 32H80C35.875 32 0 67.875 0 112V192C0 209.625 14.375 224 32 224H128V384C128 435.125 168.25 476.625 218.625 479.5L466.625 480C527 480 576 431 576 370.625V352C576 334.375 561.625 320 544 320ZM128 192H32V112C32 85.5 53.5 64 80 64S128 85.5 128 112V192ZM288 384C288 419.25 259.25 448 224 448S160 419.25 160 384V256H208C216.844 256 224 248.844 224 240S216.844 224 208 224H160V112C160 94 154 77.375 144 64H368C406.645 64 438.951 91.523 446.383 128H400C391.156 128 384 135.156 384 144S391.156 160 400 160H448V224H400C391.156 224 384 231.156 384 240S391.156 256 400 256H448V320H320C302.375 320 288 334.375 288 352V384ZM544 370.625C544 413.25 509.25 448 466.625 448H295C310.375 431 320 408.625 320 384V352H368V368C368 376.844 375.156 384 384 384S400 376.844 400 368V352H544V370.625Z"/></svg>

<svg xmlns="http://www.w3.org/2000/svg" viewBox="0 0 576 512"><!--! Font Awesome Pro 6.3.0 by @fontawesome - https://fontawesome.com License - https://fontawesome.com/license (Commercial License) Copyright 2023 Fonticons, Inc. --><path d="M544 320h-63.1L480 144C480 82.25 429.8 32 368 32h-288C35.88 32 0 67.88 0 112V192c0 17.62 14.38 32 32 32h96l.001 160c0 51.13 40.25 92.63 90.62 95.5l248 .5C527 480 576 431 576 370.6V352C576 334.4 561.6 320 544 320zM128 192H32V112C32 85.5 53.5 64 80 64S128 85.5 128 112L128 192zM288 384c0 35.25-28.75 64-64 64s-64-28.75-64-64V256h48C216.8 256 224 248.8 224 240S216.8 224 208 224H160L160 112C160 94 153.1 77.38 144 64h224c38.64 0 70.95 27.52 78.38 64H400C391.2 128 384 135.2 384 144S391.2 160 400 160h48L448 224h-48C391.2 224 384 231.2 384 240S391.2 256 400 256h48L448 320h-128c-17.62 0-31.1 14.38-31.1 32L288 384zM544 370.6C544 413.3 509.3 448 466.6 448H295C310.4 431 320 408.6 320 384v-32h48v16c0 8.844 7.158 16 16 16S400 376.8 400 368V352H544V370.6z"/></svg>
